X: 28173
T: Mrs Murphy's
R: jig
M: 6/8
K: Gmajor
|:GBd efg|dBG AGE|GBd efg|dBG A2D|
GBd efg|dBG AGE|B2G AGE|1 DED D2D:|2 DED D2A||
|:B{c}Bd gdd|edd gdd|B2d gdB|A{B}A{G}A AGE|
B{c}Bd gdd|edd gdd|B2G AGE|1 DED D2A:|2 DED D2D||

